;FLAVOR:Marlin
;TIME:18587
;Filament used: 12.4207m
;Layer height: 0.16
;MINX:2.43
;MINY:2.43
;MINZ:0.2
;MAXX:217.57
;MAXY:217.57
;MAXZ:89.64
;Generated with Cura_SteamEngine 4.13.1
M140 S75
M105
M190 S75
M104 S215
M105
M109 S215
M82 ;absolute extrusion mode
; Ender 3 Custom Start G-code
G92 E0 ; Reset Extruder
G28 ; Home all axes
G29 ; BLTouch
G1 Z2.0 F3000 ; Move Z Axis up little to prevent scratching of Heat Bed
G1 X0.1 Y20 Z0.3 F5000.0 ; Move to start position
G1 X0.1 Y200.0 Z0.3 F1500.0 E15 ; Draw the first line
G1 X0.4 Y200.0 Z0.3 F5000.0 ; Move to side a little
G1 X0.4 Y20 Z0.3 F1500.0 E30 ; Draw the second line
G92 E0 ; Reset Extruder
G1 Z2.0 F3000 ; Move Z Axis up little to prevent scratching of Heat Bed
G1 X5 Y20 Z0.3 F5000.0 ; Move over to prevent blob squish
G92 E0
G92 E0
G1 F2700 E-5
;LAYER_COUNT:561
;LAYER:0
M107
G0 F6000 X4.848 Y4.757 Z0.2
;TYPE:SKIRT
G1 F2700 E0
G1 F1200 X5.449 Y4.222 E0.04014
G1 X6.1 Y3.749 E0.08029
G1 X6.795 Y3.343 E0.12045
G1 X7.526 Y3.007 E0.16058
G1 X8.288 Y2.747 E0.20075
G1 X9.071 Y2.562 E0.24089
G1 X9.869 Y2.457 E0.28105
G1 X10.53 Y2.43 E0.31405
G1 X207.201 Y2.434 E10.12601
G1 X209.456 Y2.43 E10.23851
G1 X210.259 Y2.469 E10.27862
G1 X211.055 Y2.587 E10.31877
G1 X211.836 Y2.783 E10.35894
G1 X212.593 Y3.056 E10.39909
G1 X213.319 Y3.403 E10.43923
G1 X214.007 Y3.82 E10.47937
G1 X214.651 Y4.303 E10.51953
G1 X215.243 Y4.848 E10.55968
G1 X215.778 Y5.449 E10.59982
G1 X216.251 Y6.1 E10.63996
G1 X216.657 Y6.795 E10.68012
G1 X216.993 Y7.526 E10.72026
G1 X217.253 Y8.288 E10.76043
G1 X217.438 Y9.071 E10.80057
G1 X217.543 Y9.869 E10.84072
G1 X217.57 Y10.53 E10.87373
G1 X217.566 Y207.215 E20.68638
G1 X217.57 Y209.456 E20.79819
G1 X217.531 Y210.259 E20.83829
G1 X217.413 Y211.055 E20.87844
G1 X217.217 Y211.836 E20.91861
G1 X216.944 Y212.593 E20.95876
G1 X216.597 Y213.319 E20.99891
G1 X216.18 Y214.007 E21.03904
G1 X215.697 Y214.651 E21.07921
G1 X215.152 Y215.243 E21.11935
G1 X214.551 Y215.778 E21.15949
G1 X213.9 Y216.251 E21.19964
G1 X213.205 Y216.657 E21.2398
G1 X212.474 Y216.993 E21.27993
G1 X211.712 Y217.253 E21.3201
G1 X210.929 Y217.438 E21.36024
G1 X210.131 Y217.543 E21.4004
G1 X209.47 Y217.57 E21.4334
G1 X12.799 Y217.566 E31.24536
G1 X10.544 Y217.57 E31.35786
G1 X9.741 Y217.531 E31.39797
G1 X8.945 Y217.413 E31.43812
G1 X8.164 Y217.217 E31.47829
G1 X7.407 Y216.944 E31.51844
G1 X6.681 Y216.597 E31.55858
G1 X5.993 Y216.18 E31.59872
G1 X5.349 Y215.697 E31.63888
G1 X4.757 Y215.152 E31.67903
G1 X4.222 Y214.551 E31.71917
G1 X3.749 Y213.9 E31.75931
G1 X3.343 Y213.205 E31.79947
G1 X3.007 Y212.474 E31.83961
G1 X2.747 Y211.712 E31.87978
G1 X2.562 Y210.929 E31.91992
G1 X2.457 Y210.131 E31.96007
G1 X2.43 Y209.47 E31.99308
G1 X2.434 Y12.785 E41.80573
G1 X2.43 Y10.544 E41.91754
G1 X2.469 Y9.741 E41.95765
G1 X2.587 Y8.945 E41.99779
G1 X2.783 Y8.164 E42.03796
G1 X3.056 Y7.407 E42.07811
G1 X3.403 Y6.681 E42.11826
G1 X3.82 Y5.993 E42.15839
G1 X4.303 Y5.349 E42.19856
G1 X4.848 Y4.757 E42.2387
G0 F6000 X5.438 Y5.023
G1 F1200 X6.033 Y4.528 E42.27731
G1 X6.676 Y4.096 E42.31596
G1 X7.36 Y3.733 E42.35459
G1 X8.078 Y3.442 E42.39325
G1 X8.822 Y3.227 E42.43188
G1 X9.584 Y3.09 E42.47051
G1 X10.53 Y3.03 E42.5178
G1 X207.202 Y3.034 E52.32981
G1 X209.457 Y3.03 E52.44231
G1 X210.23 Y3.069 E52.48092
G1 X210.995 Y3.187 E52.51954
G1 X211.744 Y3.383 E52.55817
G1 X212.469 Y3.656 E52.59682
G1 X213.162 Y4.002 E52.63546
G1 X213.815 Y4.417 E52.67406
G1 X214.423 Y4.898 E52.71274
G1 X214.977 Y5.438 E52.75134
G1 X215.472 Y6.033 E52.78995
G1 X215.904 Y6.676 E52.8286
G1 X216.267 Y7.36 E52.86723
G1 X216.558 Y8.078 E52.90588
G1 X216.773 Y8.822 E52.94452
G1 X216.91 Y9.584 E52.98314
G1 X216.97 Y10.53 E53.03043
G1 X216.966 Y207.215 E62.84309
G1 X216.97 Y209.457 E62.95494
G1 X216.931 Y210.23 E62.99356
G1 X216.813 Y210.995 E63.03217
G1 X216.617 Y211.744 E63.0708
G1 X216.344 Y212.469 E63.10945
G1 X215.998 Y213.162 E63.14809
G1 X215.583 Y213.815 E63.18669
G1 X215.102 Y214.423 E63.22537
G1 X214.562 Y214.977 E63.26397
G1 X213.967 Y215.472 E63.30258
G1 X213.324 Y215.904 E63.34123
G1 X212.64 Y216.267 E63.37986
G1 X211.922 Y216.558 E63.41851
G1 X211.178 Y216.773 E63.45715
G1 X210.416 Y216.91 E63.49578
G1 X209.47 Y216.97 E63.54307
G1 X12.798 Y216.966 E73.35507
G1 X10.543 Y216.97 E73.46758
G1 X9.77 Y216.931 E73.50619
G1 X9.005 Y216.813 E73.54481
G1 X8.256 Y216.617 E73.58343
G1 X7.531 Y216.344 E73.62208
G1 X6.838 Y215.998 E73.66073
G1 X6.185 Y215.583 E73.69933
G1 X5.577 Y215.102 E73.73801
G1 X5.023 Y214.562 E73.7766
G1 X4.528 Y213.967 E73.81522
G1 X4.096 Y213.324 E73.85386
G1 X3.733 Y212.64 E73.8925
G1 X3.442 Y211.922 E73.93115
G1 X3.227 Y211.178 E73.96979
G1 X3.09 Y210.416 E74.00841
G1 X3.03 Y209.47 E74.0557
G1 X3.034 Y12.785 E83.86836
G1 X3.03 Y10.543 E83.98021
G1 X3.069 Y9.77 E84.01883
G1 X3.187 Y9.005 E84.05744
G1 X3.383 Y8.256 E84.09607
G1 X3.656 Y7.531 E84.13472
G1 X4.002 Y6.838 E84.17336
G1 X4.417 Y6.185 E84.21196
G1 X4.898 Y5.577 E84.25064
G1 X5.438 Y5.023 E84.28924
G0 F6000 X5.491 Y5.816
G1 F1200 X6.027 Y5.302 E84.32629
G1 X6.615 Y4.848 E84.36335
G1 X7.248 Y4.46 E84.40039
G1 X7.92 Y4.143 E84.43746
G1 X8.621 Y3.899 E84.47449
G1 X9.345 Y3.733 E84.51155
G1 X10.082 Y3.645 E84.54858
G1 X10.53 Y3.63 E84.57094
G1 X207.203 Y3.634 E94.383
G1 X209.458 Y3.63 E94.4955
G1 X210.199 Y3.669 E94.53252
G1 X210.933 Y3.787 E94.56961
G1 X211.649 Y3.983 E94.60665
G1 X212.34 Y4.255 E94.64369
G1 X212.998 Y4.6 E94.68076
G1 X213.615 Y5.014 E94.71783
G1 X214.184 Y5.491 E94.75487
G1 X214.698 Y6.027 E94.79192
G1 X215.152 Y6.615 E94.82899
G1 X215.54 Y7.248 E94.86603
G1 X215.857 Y7.92 E94.9031
G1 X216.101 Y8.621 E94.94013
G1 X216.267 Y9.345 E94.97718
G1 X216.355 Y10.082 E95.01421
G1 X216.37 Y10.53 E95.03658
G1 X216.366 Y207.215 E104.84923
G1 X216.37 Y209.458 E104.96114
G1 X216.331 Y210.199 E104.99816
G1 X216.213 Y210.933 E105.03525
G1 X216.017 Y211.649 E105.07228
G1 X215.745 Y212.34 E105.10933
G1 X215.4 Y212.998 E105.1464
G1 X214.986 Y213.615 E105.18347
G1 X214.509 Y214.184 E105.22051
G1 X213.973 Y214.698 E105.25756
G1 X213.385 Y215.152 E105.29462
G1 X212.752 Y215.54 E105.33166
G1 X212.08 Y215.857 E105.36873
G1 X211.379 Y216.101 E105.40576
G1 X210.655 Y216.267 E105.44282
G1 X209.918 Y216.355 E105.47985
G1 X209.47 Y216.37 E105.50221
G1 X12.797 Y216.366 E115.31427
G1 X10.542 Y216.37 E115.42677
G1 X9.801 Y216.331 E115.46379
G1 X9.067 Y216.213 E115.50088
G1 X8.351 Y216.017 E115.53792
G1 X7.66 Y215.745 E115.57497
G1 X7.002 Y215.4 E115.61203
G1 X6.385 Y214.986 E115.6491
G1 X5.816 Y214.509 E115.68614
G1 X5.302 Y213.973 E115.72319
G1 X4.848 Y213.385 E115.76026
G1 X4.46 Y212.752 E115.7973
G1 X4.143 Y212.08 E115.83437
G1 X3.899 Y211.379 E115.8714
G1 X3.733 Y210.655 E115.90846
G1 X3.645 Y209.918 E115.94549
G1 X3.63 Y209.47 E115.96785
G1 X3.634 Y12.785 E125.7805
G1 X3.63 Y10.542 E125.89241
G1 X3.669 Y9.801 E125.92943
G1 X3.787 Y9.067 E125.96652
G1 X3.983 Y8.351 E126.00355
G1 X4.255 Y7.66 E126.0406
G1 X4.6 Y7.002 E126.07767
G1 X5.014 Y6.385 E126.11474
G1 X5.491 Y5.816 E126.15178
G0 F6000 X6.083 Y6.067
G1 F1200 X6.613 Y5.596 E126.18715
G1 X7.193 Y5.186 E126.22259
G1 X7.815 Y4.845 E126.25798
G1 X8.472 Y4.576 E126.2934
G1 X9.154 Y4.382 E126.32877
G1 X9.854 Y4.266 E126.36417
G1 X10.53 Y4.23 E126.39795
G1 X207.204 Y4.234 E136.21005
G1 X209.459 Y4.23 E136.32256
G1 X210.167 Y4.269 E136.35793
G1 X210.867 Y4.387 E136.39335
G1 X211.549 Y4.583 E136.42875
G1 X212.205 Y4.855 E136.46418
G1 X212.826 Y5.198 E136.49957
G1 X213.404 Y5.609 E136.53496
G1 X213.933 Y6.083 E136.57039
G1 X214.404 Y6.613 E136.60577
G1 X214.814 Y7.193 E136.6412
G1 X215.155 Y7.815 E136.67659
G1 X215.424 Y8.472 E136.71201
G1 X215.618 Y9.154 E136.74739
G1 X215.734 Y9.854 E136.78279
G1 X215.77 Y10.53 E136.81656
G1 X215.766 Y207.215 E146.62921
G1 X215.77 Y209.459 E146.74117
G1 X215.731 Y210.167 E146.77654
G1 X215.613 Y210.867 E146.81196
G1 X215.417 Y211.549 E146.84736
G1 X215.145 Y212.205 E146.88279
G1 X214.802 Y212.826 E146.91818
G1 X214.391 Y213.404 E146.95357
G1 X213.917 Y213.933 E146.98901
G1 X213.387 Y214.404 E147.02438
G1 X212.807 Y214.814 E147.05982
G1 X212.185 Y215.155 E147.0952
G1 X211.528 Y215.424 E147.13062
G1 X210.846 Y215.618 E147.166
G1 X210.146 Y215.734 E147.2014
G1 X209.47 Y215.77 E147.23517
G1 X12.796 Y215.766 E157.04728
G1 X10.541 Y215.77 E157.15978
G1 X9.833 Y215.731 E157.19516
G1 X9.133 Y215.613 E157.23057
G1 X8.451 Y215.417 E157.26597
G1 X7.795 Y215.145 E157.3014
G1 X7.174 Y214.802 E157.3368
G1 X6.596 Y214.391 E157.37218
G1 X6.067 Y213.917 E157.40762
G1 X5.596 Y213.387 E157.44299
G1 X5.186 Y212.807 E157.47843
G1 X4.845 Y212.185 E157.51382
G1 X4.576 Y211.528 E157.54924
G1 X4.382 Y210.846 E157.58461
G1 X4.266 Y210.146 E157.62001
G1 X4.23 Y209.47 E157.65378
G1 X4.234 Y12.785 E167.46644
G1 X4.23 Y10.541 E167.57839
G1 X4.269 Y9.833 E167.61377
G1 X4.387 Y9.133 E167.64918
G1 X4.583 Y8.451 E167.68459
G1 X4.855 Y7.795 E167.72002
G1 X5.198 Y7.174 E167.75541
G1 X5.609 Y6.596 E167.79079
G1 X6.083 Y6.067 E167.82623
G0 F6000 X6.673 Y6.333
G1 F1200 X7.196 Y5.906 E167.85991
G1 X7.766 Y5.545 E167.89357
G1 X8.375 Y5.253 E167.92727
G1 X9.014 Y5.035 E167.96095
G1 X9.674 Y4.895 E167.99461
G1 X10.53 Y4.83 E168.03744
G1 X207.205 Y4.834 E177.8496
G1 X209.46 Y4.83 E177.9621
G1 X210.134 Y4.869 E177.99578
G1 X210.798 Y4.987 E178.02943
G1 X211.444 Y5.183 E178.06311
G1 X212.062 Y5.454 E178.09678
G1 X212.644 Y5.796 E178.13045
G1 X213.182 Y6.204 E178.16414
G1 X213.667 Y6.673 E178.1978
G1 X214.094 Y7.196 E178.23148
G1 X214.455 Y7.766 E178.26515
G1 X214.747 Y8.375 E178.29884
G1 X214.965 Y9.014 E178.33252
G1 X215.105 Y9.674 E178.36618
G1 X215.17 Y10.53 E178.40901
G1 X215.166 Y207.215 E188.22167
G1 X215.17 Y209.46 E188.33367
G1 X215.131 Y210.134 E188.36735
G1 X215.013 Y210.798 E188.401
G1 X214.817 Y211.444 E188.43468
G1 X214.546 Y212.062 E188.46835
G1 X214.204 Y212.644 E188.50202
G1 X213.796 Y213.182 E188.53571
G1 X213.327 Y213.667 E188.56937
G1 X212.804 Y214.094 E188.60306
G1 X212.234 Y214.455 E188.63672
G1 X211.625 Y214.747 E188.67041
G1 X210.986 Y214.965 E188.7041
G1 X210.326 Y215.105 E188.73776
G1 X209.47 Y215.17 E188.78058
G1 X12.795 Y215.166 E198.59274
G1 X10.54 Y215.17 E198.70524
G1 X9.866 Y215.131 E198.73892
G1 X9.202 Y215.013 E198.77257
G1 X8.556 Y214.817 E198.80625
G1 X7.938 Y214.546 E198.83992
G1 X7.356 Y214.204 E198.8736
G1 X6.818 Y213.796 E198.90728
G1 X6.333 Y213.327 E198.94094
G1 X5.906 Y212.804 E198.97463
G1 X5.545 Y212.234 E199.00829
G1 X5.253 Y211.625 E199.04198
G1 X5.035 Y210.986 E199.07567
G1 X4.895 Y210.326 E199.10933
G1 X4.83 Y209.47 E199.15215
G1 X4.834 Y12.785 E208.96481
G1 X4.83 Y10.54 E209.07681
G1 X4.869 Y9.866 E209.1105
G1 X4.987 Y9.202 E209.14414
G1 X5.183 Y8.556 E209.17782
G1 X5.454 Y7.938 E209.21149
G1 X5.796 Y7.356 E209.24517
G1 X6.204 Y6.818 E209.27885
G1 X6.673 Y6.333 E209.31251
G0 F6000 X6.798 Y7.054
G1 F1200 X7.261 Y6.615 E209.34434
G1 X7.776 Y6.238 E209.37619
G1 X8.334 Y5.927 E209.40806
G1 X8.926 Y5.689 E209.43989
G1 X9.544 Y5.526 E209.47178
G1 X10.176 Y5.442 E209.50358
G1 X10.53 Y5.43 E209.52125
G1 X207.206 Y5.434 E219.33346
G1 X209.461 Y5.43 E219.44596
G1 X210.098 Y5.469 E219.4778
G1 X210.726 Y5.587 E219.50968
G1 X211.333 Y5.783 E219.5415
G1 X211.912 Y6.053 E219.57338
G1 X212.452 Y6.393 E219.60521
G1 X212.946 Y6.798 E219.63708
G1 X213.385 Y7.261 E219.66891
G1 X213.762 Y7.776 E219.70076
G1 X214.073 Y8.334 E219.73263
G1 X214.311 Y8.926 E219.76446
G1 X214.474 Y9.544 E219.79635
G1 X214.558 Y10.176 E219.82815
G1 X214.57 Y10.53 E219.84583
G1 X214.566 Y207.215 E229.65848
G1 X214.57 Y209.461 E229.77053
G1 X214.531 Y210.098 E229.80237
G1 X214.413 Y210.726 E229.83425
G1 X214.217 Y211.333 E229.86608
G1 X213.947 Y211.912 E229.89795
G1 X213.607 Y212.452 E229.92978
G1 X213.202 Y212.946 E229.96165
G1 X212.739 Y213.385 E229.99349
G1 X212.224 Y213.762 E230.02533
G1 X211.666 Y214.073 E230.0572
G1 X211.074 Y214.311 E230.08903
G1 X210.456 Y214.474 E230.12092
G1 X209.824 Y214.558 E230.15273
G1 X209.47 Y214.57 E230.1704
G1 X12.794 Y214.566 E239.9826
G1 X10.539 Y214.57 E240.0951
G1 X9.902 Y214.531 E240.12694
G1 X9.274 Y214.413 E240.15882
G1 X8.667 Y214.217 E240.19065
G1 X8.088 Y213.947 E240.22252
G1 X7.548 Y213.607 E240.25436
G1 X7.054 Y213.202 E240.28623
G1 X6.615 Y212.739 E240.31806
G1 X6.238 Y212.224 E240.3499
G1 X5.927 Y211.666 E240.38177
G1 X5.689 Y211.074 E240.4136
G1 X5.526 Y210.456 E240.44549
G1 X5.442 Y209.824 E240.4773
G1 X5.43 Y209.47 E240.49497
G1 X5.434 Y12.785 E250.30762
G1 X5.43 Y10.539 E250.41968
G1 X5.469 Y9.902 E250.45152
G1 X5.587 Y9.274 E250.48339
G1 X5.783 Y8.667 E250.51522
G1 X6.053 Y8.088 E250.54709
G1 X6.393 Y7.548 E250.57893
G1 X6.798 Y7.054 E250.6108
G0 F6000 X7.39 Y7.307
G1 F1200 X7.846 Y6.918 E250.6407
G1 X8.35 Y6.593 E250.67062
G1 X8.893 Y6.338 E250.70055
G1 X9.465 Y6.158 E250.73046
G1 X10.056 Y6.055 E250.76039
G1 X10.53 Y6.03 E250.78407
G1 X207.207 Y6.034 E260.59633
G1 X209.462 Y6.03 E260.70883
G1 X210.06 Y6.069 E260.73873
G1 X210.648 Y6.187 E260.76865
G1 X211.215 Y6.382 E260.79856
G1 X211.751 Y6.651 E260.82848
G1 X212.247 Y6.989 E260.85843
G1 X212.693 Y7.39 E260.88835
G1 X213.082 Y7.846 E260.91825
G1 X213.407 Y8.35 E260.94817
G1 X213.662 Y8.893 E260.9781
G1 X213.842 Y9.465 E261.00802
G1 X213.945 Y10.056 E261.03795
G1 X213.97 Y10.53 E261.06163
G1 X213.966 Y207.215 E270.87428
G1 X213.97 Y209.462 E270.98639
G1 X213.931 Y210.06 E271.01629
G1 X213.813 Y210.648 E271.04621
G1 X213.618 Y211.215 E271.07612
G1 X213.349 Y211.751 E271.10604
G1 X213.011 Y212.247 E271.13598
G1 X212.61 Y212.693 E271.16591
G1 X212.154 Y213.082 E271.19581
G1 X211.65 Y213.407 E271.22573
G1 X211.107 Y213.662 E271.25566
G1 X210.535 Y213.842 E271.28558
G1 X209.944 Y213.945 E271.3155
G1 X209.47 Y213.97 E271.33919
G1 X12.793 Y213.966 E281.15144
G1 X10.538 Y213.97 E281.26394
G1 X9.94 Y213.931 E281.29384
G1 X9.352 Y213.813 E281.32376
G1 X8.785 Y213.618 E281.35368
G1 X8.249 Y213.349 E281.3836
G1 X7.753 Y213.011 E281.41354
G1 X7.307 Y212.61 E281.44346
G1 X6.918 Y212.154 E281.47337
G1 X6.593 Y211.65 E281.50329
G1 X6.338 Y211.107 E281.53321
G1 X6.158 Y210.535 E281.56313
G1 X6.055 Y209.944 E281.59306
G1 X6.03 Y209.47 E281.61674
G1 X6.034 Y12.785 E291.4294
G1 X6.03 Y10.538 E291.5415
G1 X6.069 Y9.94 E291.5714
G1 X6.187 Y9.352 E291.60132
G1 X6.382 Y8.785 E291.63123
G1 X6.651 Y8.249 E291.66115
G1 X6.989 Y7.753 E291.6911
G1 X7.39 Y7.307 E291.72102
G0 F6000 X7.979 Y7.58
G1 F1200 X8.426 Y7.246 E291.74886
G1 X8.916 Y6.979 E291.7767
G1 X9.44 Y6.785 E291.80457
G1 X9.986 Y6.668 E291.83243
G1 X10.53 Y6.63 E291.85964
G1 X207.208 Y6.634 E301.67194
G1 X209.463 Y6.63 E301.78445
G1 X210.02 Y6.669 E301.8123
G1 X210.566 Y6.787 E301.84017
G1 X211.089 Y6.982 E301.86802
G1 X211.579 Y7.249 E301.89586
G1 X212.025 Y7.584 E301.92369
G1 X212.42 Y7.979 E301.95156
G1 X212.754 Y8.426 E301.9794
G1 X213.021 Y8.916 E302.00724
G1 X213.215 Y9.44 E302.03511
G1 X213.332 Y9.986 E302.06297
G1 X213.37 Y10.53 E302.09018
G1 X213.366 Y207.215 E311.90283
G1 X213.37 Y209.463 E312.01499
G1 X213.331 Y210.02 E312.04284
G1 X213.213 Y210.566 E312.07071
G1 X213.018 Y211.089 E312.09856
G1 X212.751 Y211.579 E312.1264
G1 X212.416 Y212.025 E312.15423
G1 X212.021 Y212.42 E312.1821
G1 X211.574 Y212.754 E312.20993
G1 X211.084 Y213.021 E312.23777
G1 X210.56 Y213.215 E312.26565
G1 X210.014 Y213.332 E312.29351
G1 X209.47 Y213.37 E312.32072
G1 X12.792 Y213.366 E322.13302
G1 X10.537 Y213.37 E322.24552
G1 X9.98 Y213.331 E322.27338
G1 X9.434 Y213.213 E322.30125
G1 X8.911 Y213.018 E322.3291
G1 X8.421 Y212.751 E322.35694
G1 X7.975 Y212.416 E322.38477
G1 X7.58 Y212.021 E322.41264
G1 X7.246 Y211.574 E322.44047
G1 X6.979 Y211.084 E322.46831
G1 X6.785 Y210.56 E322.49619
G1 X6.668 Y210.014 E322.52405
G1 X6.63 Y209.47 E322.55126
G1 X6.634 Y12.785 E332.36391
G1 X6.63 Y10.537 E332.47606
G1 X6.669 Y9.98 E332.50392
G1 X6.787 Y9.434 E332.53179
G1 X6.982 Y8.911 E332.55964
G1 X7.249 Y8.421 E332.58748
G1 X7.584 Y7.975 E332.6153
G1 X7.979 Y7.58 E332.64317
G0 F6000 X8.177 Y8.216
G1 F1200 X8.564 Y7.879 E332.66878
G1 X8.999 Y7.607 E332.69437
G1 X9.471 Y7.405 E332.71999
G1 X9.969 Y7.278 E332.74563
G1 X10.53 Y7.23 E332.77372
G1 X207.209 Y7.234 E342.58607
G1 X209.464 Y7.23 E342.69857
