;FLAVOR:Marlin
;TIME:8136
;Filament used: 6.77639m
;Layer height: 0.16
;MINX:54.9
;MINY:69.9
;MINZ:0.2
;MAXX:165.1
;MAXY:150.1
;MAXZ:35.88
;Generated with Cura_SteamEngine 4.13.1
M140 S75
M105
M190 S75
M104 S215
M105
M109 S215
M82 ;absolute extrusion mode
; Ender 3 Custom Start G-code
G92 E0 ; Reset Extruder
G28 ; Home all axes
G29 ; BLTouch
G1 Z2.0 F3000 ; Move Z Axis up little to prevent scratching of Heat Bed
G1 X0.1 Y20 Z0.3 F5000.0 ; Move to start position
G1 X0.1 Y200.0 Z0.3 F1500.0 E15 ; Draw the first line
G1 X0.4 Y200.0 Z0.3 F5000.0 ; Move to side a little
G1 X0.4 Y20 Z0.3 F1500.0 E30 ; Draw the second line
G92 E0 ; Reset Extruder
G1 Z2.0 F3000 ; Move Z Axis up little to prevent scratching of Heat Bed
G1 X5 Y20 Z0.3 F5000.0 ; Move over to prevent blob squish
G92 E0
G92 E0
G1 F2700 E-5
;LAYER_COUNT:225
;LAYER:0
M107
G0 F6000 X57.93 Y73.683 Z0.2
;TYPE:SKIRT
G1 F2700 E0
G1 F1200 X58.582 Y73.211 E0.04016
G1 X59.278 Y72.806 E0.08033
G1 X60.01 Y72.472 E0.12047
G1 X60.772 Y72.213 E0.16063
G1 X61.555 Y72.03 E0.20074
G1 X62.353 Y71.926 E0.24089
G1 X63 Y71.9 E0.2732
G1 X96.677 Y71.9 E1.95335
G1 X96.756 Y71.826 E1.95875
G1 X97.395 Y71.336 E1.99892
G1 X98.079 Y70.912 E2.03907
G1 X98.802 Y70.558 E2.07923
G1 X99.556 Y70.278 E2.11936
G1 X100.334 Y70.073 E2.1595
G1 X101.129 Y69.947 E2.19966
G1 X102 Y69.9 E2.24318
G1 X118 Y69.9 E3.04142
G1 X118.804 Y69.94 E3.08158
G1 X119.6 Y70.06 E3.12174
G1 X120.38 Y70.257 E3.16188
G1 X121.136 Y70.532 E3.20201
G1 X121.862 Y70.88 E3.24218
G1 X122.549 Y71.298 E3.2823
G1 X123.192 Y71.783 E3.32248
G1 X123.319 Y71.9 E3.3311
G1 X157 Y71.9 E5.01145
G1 X157.804 Y71.94 E5.05161
G1 X158.6 Y72.06 E5.09177
G1 X159.38 Y72.257 E5.13191
G1 X160.136 Y72.532 E5.17204
G1 X160.862 Y72.88 E5.21221
G1 X161.549 Y73.298 E5.25233
G1 X162.192 Y73.783 E5.29251
G1 X162.783 Y74.328 E5.33262
G1 X163.317 Y74.93 E5.37277
G1 X163.789 Y75.582 E5.41292
G1 X164.194 Y76.278 E5.4531
G1 X164.528 Y77.01 E5.49324
G1 X164.787 Y77.772 E5.53339
G1 X164.97 Y78.555 E5.57351
G1 X165.074 Y79.353 E5.61366
G1 X165.1 Y80 E5.64596
G1 X165.1 Y140 E8.63938
G1 X165.06 Y140.804 E8.67954
G1 X164.94 Y141.6 E8.7197
G1 X164.743 Y142.38 E8.75983
G1 X164.468 Y143.136 E8.79997
G1 X164.12 Y143.862 E8.84014
G1 X163.702 Y144.549 E8.88026
G1 X163.217 Y145.192 E8.92044
G1 X162.672 Y145.783 E8.96055
G1 X162.07 Y146.317 E9.00069
G1 X161.418 Y146.789 E9.04085
G1 X160.722 Y147.194 E9.08103
G1 X159.99 Y147.528 E9.12117
G1 X159.228 Y147.787 E9.16132
G1 X158.445 Y147.97 E9.20144
G1 X157.647 Y148.074 E9.24159
G1 X157 Y148.1 E9.27389
G1 X123.323 Y148.1 E10.95404
G1 X123.244 Y148.174 E10.95944
G1 X122.605 Y148.664 E10.99962
G1 X121.921 Y149.088 E11.03977
G1 X121.198 Y149.442 E11.07993
G1 X120.444 Y149.722 E11.12006
G1 X119.666 Y149.927 E11.1602
G1 X118.871 Y150.053 E11.20035
G1 X118 Y150.1 E11.24387
G1 X102 Y150.1 E12.04211
G1 X101.196 Y150.06 E12.08228
G1 X100.4 Y149.94 E12.12244
G1 X99.62 Y149.743 E12.16257
G1 X98.864 Y149.468 E12.20271
G1 X98.138 Y149.12 E12.24287
G1 X97.451 Y148.702 E12.28299
G1 X96.808 Y148.217 E12.32318
G1 X96.681 Y148.1 E12.33179
G1 X63 Y148.1 E14.01214
G1 X62.196 Y148.06 E14.0523
G1 X61.4 Y147.94 E14.09247
G1 X60.62 Y147.743 E14.1326
G1 X59.864 Y147.468 E14.17274
G1 X59.138 Y147.12 E14.2129
G1 X58.451 Y146.702 E14.25302
G1 X57.808 Y146.217 E14.29321
G1 X57.217 Y145.672 E14.33331
G1 X56.683 Y145.07 E14.37346
G1 X56.211 Y144.418 E14.41362
G1 X55.806 Y143.722 E14.45379
G1 X55.472 Y142.99 E14.49393
G1 X55.213 Y142.228 E14.53409
G1 X55.03 Y141.445 E14.5742
G1 X54.926 Y140.647 E14.61435
G1 X54.9 Y140 E14.64666
G1 X54.9 Y80 E17.64007
G1 X54.94 Y79.196 E17.68023
G1 X55.06 Y78.4 E17.72039
G1 X55.257 Y77.62 E17.76053
G1 X55.532 Y76.864 E17.80066
G1 X55.88 Y76.138 E17.84083
G1 X56.298 Y75.451 E17.88095
G1 X56.783 Y74.808 E17.92113
G1 X57.328 Y74.217 E17.96124
G1 X57.93 Y73.683 E18.00139
G0 F6000 X58.514 Y73.99
G1 F1200 X59.158 Y73.559 E18.04005
G1 X59.842 Y73.197 E18.07866
G1 X60.56 Y72.908 E18.11727
G1 X61.305 Y72.694 E18.15594
G1 X62.067 Y72.558 E18.19456
G1 X63 Y72.5 E18.2412
G1 X96.913 Y72.5 E19.93312
G1 X97.326 Y72.135 E19.96062
G1 X97.955 Y71.684 E19.99924
G1 X98.628 Y71.301 E20.03787
G1 X99.337 Y70.989 E20.07651
G1 X100.074 Y70.752 E20.11514
G1 X100.831 Y70.592 E20.15374
G1 X101.601 Y70.511 E20.19237
G1 X102 Y70.5 E20.21228
G1 X118 Y70.5 E21.01052
G1 X118.773 Y70.54 E21.04914
G1 X119.538 Y70.659 E21.08776
G1 X120.287 Y70.857 E21.12642
G1 X121.011 Y71.131 E21.16504
G1 X121.704 Y71.478 E21.2037
G1 X122.356 Y71.895 E21.24232
G1 X122.962 Y72.377 E21.28095
G1 X123.088 Y72.5 E21.28973
G1 X157 Y72.5 E22.98161
G1 X157.773 Y72.54 E23.02022
G1 X158.538 Y72.659 E23.05885
G1 X159.287 Y72.857 E23.0975
G1 X160.011 Y73.131 E23.13612
G1 X160.704 Y73.478 E23.17479
G1 X161.356 Y73.895 E23.2134
G1 X161.962 Y74.377 E23.25203
G1 X162.516 Y74.918 E23.29066
G1 X163.01 Y75.514 E23.32928
G1 X163.441 Y76.158 E23.36794
G1 X163.803 Y76.842 E23.40655
G1 X164.092 Y77.56 E23.44517
G1 X164.306 Y78.305 E23.48384
G1 X164.442 Y79.067 E23.52245
G1 X164.5 Y80 E23.56909
G1 X164.5 Y140 E26.5625
G1 X164.46 Y140.773 E26.60112
G1 X164.341 Y141.538 E26.63975
G1 X164.143 Y142.287 E26.6784
G1 X163.869 Y143.011 E26.71702
G1 X163.522 Y143.704 E26.75568
G1 X163.105 Y144.356 E26.7943
G1 X162.623 Y144.962 E26.83293
G1 X162.082 Y145.516 E26.87156
G1 X161.486 Y146.01 E26.91018
G1 X160.842 Y146.441 E26.94884
G1 X160.158 Y146.803 E26.98745
G1 X159.44 Y147.092 E27.02606
G1 X158.695 Y147.306 E27.06473
G1 X157.933 Y147.442 E27.10335
G1 X157 Y147.5 E27.14999
G1 X123.087 Y147.5 E28.84192
G1 X122.674 Y147.865 E28.86941
G1 X122.045 Y148.316 E28.90803
G1 X121.372 Y148.699 E28.94666
G1 X120.663 Y149.011 E28.98531
G1 X119.926 Y149.248 E29.02393
G1 X119.169 Y149.408 E29.06253
G1 X118.399 Y149.489 E29.10116
G1 X118 Y149.5 E29.12107
G1 X102 Y149.5 E29.91932
G1 X101.227 Y149.46 E29.95793
G1 X100.462 Y149.341 E29.99656
G1 X99.713 Y149.143 E30.03521
G1 X98.989 Y148.869 E30.07383
G1 X98.296 Y148.522 E30.11249
G1 X97.644 Y148.105 E30.15111
G1 X97.038 Y147.623 E30.18974
G1 X96.912 Y147.5 E30.19852
G1 X63 Y147.5 E31.8904
G1 X62.227 Y147.46 E31.92902
G1 X61.462 Y147.341 E31.96764
G1 X60.713 Y147.143 E32.00629
G1 X59.989 Y146.869 E32.04491
G1 X59.296 Y146.522 E32.08358
G1 X58.644 Y146.105 E32.12219
G1 X58.038 Y145.623 E32.16082
G1 X57.484 Y145.082 E32.19945
G1 X56.99 Y144.486 E32.23807
G1 X56.559 Y143.842 E32.27674
G1 X56.197 Y143.158 E32.31534
G1 X55.908 Y142.44 E32.35396
G1 X55.694 Y141.695 E32.39263
G1 X55.558 Y140.933 E32.43125
G1 X55.5 Y140 E32.47788
G1 X55.5 Y80 E35.4713
G1 X55.54 Y79.227 E35.50991
G1 X55.659 Y78.462 E35.54854
G1 X55.857 Y77.713 E35.58719
G1 X56.131 Y76.989 E35.62581
G1 X56.478 Y76.296 E35.66448
G1 X56.895 Y75.644 E35.70309
G1 X57.377 Y75.038 E35.74172
G1 X57.918 Y74.484 E35.78035
G1 X58.514 Y73.99 E35.81897
G0 F6000 X58.506 Y74.764
G1 F1200 X59.095 Y74.311 E35.85604
G1 X59.729 Y73.925 E35.89307
G1 X60.401 Y73.608 E35.93014
G1 X61.103 Y73.366 E35.96719
G1 X61.827 Y73.2 E36.00425
G1 X62.565 Y73.114 E36.04132
G1 X63 Y73.1 E36.06303
G1 X97.154 Y73.1 E37.76698
G1 X97.32 Y72.93 E37.77883
G1 X97.892 Y72.456 E37.81589
G1 X98.512 Y72.047 E37.85295
G1 X99.172 Y71.706 E37.89001
G1 X99.865 Y71.439 E37.92706
G1 X100.582 Y71.247 E37.9641
G1 X101.316 Y71.134 E38.00115
G1 X102 Y71.1 E38.03531
G1 X118 Y71.1 E38.83356
G1 X118.742 Y71.14 E38.87063
G1 X119.475 Y71.259 E38.90768
G1 X120.191 Y71.457 E38.94474
G1 X120.881 Y71.73 E38.98176
G1 X121.538 Y72.076 E39.01881
G1 X122.155 Y72.491 E39.0559
G1 X122.723 Y72.969 E39.09294
G1 X122.848 Y73.1 E39.10197
G1 X157 Y73.1 E40.80582
G1 X157.742 Y73.14 E40.8429
G1 X158.475 Y73.259 E40.87994
G1 X159.191 Y73.457 E40.91701
G1 X159.881 Y73.73 E40.95403
G1 X160.538 Y74.076 E40.99107
G1 X161.155 Y74.491 E41.02817
G1 X161.723 Y74.969 E41.06521
G1 X162.236 Y75.506 E41.10226
G1 X162.689 Y76.095 E41.13933
G1 X163.075 Y76.729 E41.17636
G1 X163.392 Y77.401 E41.21343
G1 X163.634 Y78.103 E41.25048
G1 X163.8 Y78.827 E41.28753
G1 X163.886 Y79.565 E41.3246
G1 X163.9 Y80 E41.34632
G1 X163.9 Y140 E44.33973
G1 X163.86 Y140.742 E44.3768
G1 X163.741 Y141.475 E44.41385
G1 X163.543 Y142.191 E44.45091
G1 X163.27 Y142.881 E44.48793
G1 X162.924 Y143.538 E44.52498
G1 X162.509 Y144.155 E44.56207
G1 X162.031 Y144.723 E44.59911
G1 X161.494 Y145.236 E44.63616
G1 X160.905 Y145.689 E44.67323
G1 X160.271 Y146.075 E44.71026
G1 X159.599 Y146.392 E44.74733
G1 X158.897 Y146.634 E44.78438
G1 X158.173 Y146.8 E44.82144
G1 X157.435 Y146.886 E44.85851
G1 X157 Y146.9 E44.88022
G1 X122.846 Y146.9 E46.58417
G1 X122.68 Y147.07 E46.59602
G1 X122.108 Y147.544 E46.63309
G1 X121.488 Y147.953 E46.67014
G1 X120.828 Y148.294 E46.7072
G1 X120.135 Y148.561 E46.74426
G1 X119.418 Y148.753 E46.78129
G1 X118.684 Y148.866 E46.81834
G1 X118 Y148.9 E46.8525
G1 X102 Y148.9 E47.65075
G1 X101.258 Y148.86 E47.68782
G1 X100.525 Y148.741 E47.72487
G1 X99.809 Y148.543 E47.76193
G1 X99.119 Y148.27 E47.79895
G1 X98.462 Y147.924 E47.836
G1 X97.845 Y147.509 E47.87309
G1 X97.277 Y147.031 E47.91013
G1 X97.152 Y146.9 E47.91916
G1 X63 Y146.9 E49.62301
G1 X62.258 Y146.86 E49.66009
G1 X61.525 Y146.741 E49.69714
G1 X60.809 Y146.543 E49.7342
G1 X60.119 Y146.27 E49.77122
G1 X59.462 Y145.924 E49.80826
G1 X58.845 Y145.509 E49.84536
G1 X58.277 Y145.031 E49.8824
G1 X57.764 Y144.494 E49.91945
G1 X57.311 Y143.905 E49.95652
G1 X56.925 Y143.271 E49.99355
G1 X56.608 Y142.599 E50.03062
G1 X56.366 Y141.897 E50.06767
G1 X56.2 Y141.173 E50.10472
G1 X56.114 Y140.435 E50.14179
G1 X56.1 Y140 E50.16351
G1 X56.1 Y80 E53.15692
G1 X56.14 Y79.258 E53.19399
G1 X56.259 Y78.525 E53.23104
G1 X56.457 Y77.809 E53.2681
G1 X56.73 Y77.119 E53.30512
G1 X57.076 Y76.462 E53.34217
G1 X57.491 Y75.845 E53.37926
G1 X57.969 Y75.277 E53.4163
G1 X58.506 Y74.764 E53.45335
G0 F6000 X59.092 Y75.059
G1 F1200 X59.672 Y74.651 E53.48873
G1 X60.295 Y74.31 E53.52416
G1 X60.952 Y74.042 E53.55956
G1 X61.635 Y73.85 E53.59496
G1 X62.336 Y73.735 E53.6304
G1 X63 Y73.7 E53.66357
G1 X97.398 Y73.7 E55.3797
G1 X97.892 Y73.224 E55.41392
G1 X98.455 Y72.792 E55.44933
G1 X99.063 Y72.426 E55.48473
G1 X99.709 Y72.131 E55.52016
G1 X100.383 Y71.911 E55.55553
G1 X101.078 Y71.768 E55.59093
G1 X102 Y71.7 E55.63706
G1 X118 Y71.7 E56.4353
G1 X118.709 Y71.74 E56.47073
G1 X119.408 Y71.859 E56.5061
G1 X120.09 Y72.057 E56.54153
G1 X120.745 Y72.329 E56.57692
G1 X121.365 Y72.674 E56.61232
G1 X121.943 Y73.086 E56.64773
G1 X122.47 Y73.561 E56.68312
G1 X122.593 Y73.7 E56.69238
G1 X157 Y73.7 E58.40896
G1 X157.709 Y73.74 E58.44439
G1 X158.408 Y73.859 E58.47976
G1 X159.09 Y74.057 E58.51519
G1 X159.745 Y74.329 E58.55057
G1 X160.365 Y74.674 E58.58597
G1 X160.943 Y75.086 E58.62138
G1 X161.47 Y75.561 E58.65678
G1 X161.941 Y76.092 E58.69219
G1 X162.349 Y76.672 E58.72757
G1 X162.69 Y77.295 E58.763
G1 X162.958 Y77.952 E58.7984
G1 X163.15 Y78.635 E58.8338
G1 X163.265 Y79.336 E58.86924
G1 X163.3 Y80 E58.90241
G1 X163.3 Y140 E61.89583
G1 X163.26 Y140.709 E61.93125
G1 X163.141 Y141.408 E61.96663
G1 X162.943 Y142.09 E62.00206
G1 X162.671 Y142.745 E62.03744
G1 X162.326 Y143.365 E62.07284
G1 X161.914 Y143.943 E62.10825
G1 X161.439 Y144.47 E62.14365
G1 X160.908 Y144.941 E62.17906
G1 X160.328 Y145.349 E62.21444
G1 X159.705 Y145.69 E62.24987
G1 X159.048 Y145.958 E62.28527
G1 X158.365 Y146.15 E62.32067
G1 X157.664 Y146.265 E62.35611
G1 X157 Y146.3 E62.38928
G1 X122.602 Y146.3 E64.1054
G1 X122.108 Y146.776 E64.13963
G1 X121.545 Y147.208 E64.17503
G1 X120.937 Y147.574 E64.21044
G1 X120.291 Y147.869 E64.24587
G1 X119.617 Y148.089 E64.28124
G1 X118.922 Y148.232 E64.31664
G1 X118 Y148.3 E64.36277
G1 X102 Y148.3 E65.16101
G1 X101.291 Y148.26 E65.19644
G1 X100.592 Y148.141 E65.23181
G1 X99.91 Y147.943 E65.26724
G1 X99.255 Y147.671 E65.30263
G1 X98.635 Y147.326 E65.33802
G1 X98.057 Y146.914 E65.37344
G1 X97.53 Y146.439 E65.40883
G1 X97.407 Y146.3 E65.41809
G1 X63 Y146.3 E67.13466
G1 X62.291 Y146.26 E67.17009
G1 X61.592 Y146.141 E67.20547
G1 X60.91 Y145.943 E67.2409
G1 X60.255 Y145.671 E67.27628
G1 X59.635 Y145.326 E67.31168
G1 X59.057 Y144.914 E67.34709
G1 X58.53 Y144.439 E67.38249
G1 X58.059 Y143.908 E67.4179
G1 X57.651 Y143.328 E67.45328
G1 X57.31 Y142.705 E67.48871
G1 X57.042 Y142.048 E67.52411
G1 X56.85 Y141.365 E67.55951
G1 X56.735 Y140.664 E67.59495
G1 X56.7 Y140 E67.62812
G1 X56.7 Y80 E70.62153
G1 X56.74 Y79.291 E70.65696
G1 X56.859 Y78.592 E70.69234
G1 X57.057 Y77.91 E70.72777
G1 X57.329 Y77.255 E70.76315
G1 X57.674 Y76.635 E70.79855
G1 X58.086 Y76.057 E70.83396
G1 X58.561 Y75.53 E70.86936
G1 X59.092 Y75.059 E70.90477
G0 F6000 X59.675 Y75.371
G1 F1200 X60.245 Y75.01 E70.93843
G1 X60.854 Y74.719 E70.9721
G1 X61.494 Y74.503 E71.0058
G1 X62.154 Y74.363 E71.03946
G1 X63 Y74.3 E71.08179
G1 X97.676 Y74.3 E72.81178
G1 X97.958 Y73.981 E72.83302
G1 X98.461 Y73.532 E72.86666
G1 X99.014 Y73.145 E72.90033
G1 X99.609 Y72.826 E72.93402
G1 X100.237 Y72.579 E72.96768
G1 X100.891 Y72.409 E73.0014
G1 X101.559 Y72.317 E73.03504
G1 X102 Y72.3 E73.05705
G1 X118 Y72.3 E73.8553
G1 X118.674 Y72.34 E73.88898
G1 X119.338 Y72.459 E73.92264
G1 X119.984 Y72.656 E73.95633
G1 X120.601 Y72.928 E73.98997
G1 X121.183 Y73.271 E74.02368
G1 X121.719 Y73.681 E74.05734
G1 X122.204 Y74.151 E74.09104
G1 X122.325 Y74.3 E74.10061
G1 X157 Y74.3 E75.83056
G1 X157.674 Y74.34 E75.86424
G1 X158.338 Y74.459 E75.8979
G1 X158.984 Y74.656 E75.93159
G1 X159.601 Y74.928 E75.96523
G1 X160.183 Y75.271 E75.99894
G1 X160.719 Y75.681 E76.0326
G1 X161.204 Y76.151 E76.0663
G1 X161.629 Y76.675 E76.09996
G1 X161.99 Y77.245 E76.13362
G1 X162.281 Y77.854 E76.16729
G1 X162.497 Y78.494 E76.20099
G1 X162.637 Y79.154 E76.23465
G1 X162.7 Y80 E76.27698
G1 X162.7 Y140 E79.27039
G1 X162.66 Y140.674 E79.30407
G1 X162.541 Y141.338 E79.33773
G1 X162.344 Y141.984 E79.37142
G1 X162.072 Y142.601 E79.40506
G1 X161.729 Y143.183 E79.43877
G1 X161.319 Y143.719 E79.47243
G1 X160.849 Y144.204 E79.50613
G1 X160.325 Y144.629 E79.53979
G1 X159.755 Y144.99 E79.57345
G1 X159.146 Y145.281 E79.60712
G1 X158.506 Y145.497 E79.64082
G1 X157.846 Y145.637 E79.67448
G1 X157 Y145.7 E79.71681
G1 X122.324 Y145.7 E81.4468
G1 X122.042 Y146.019 E81.46804
G1 X121.539 Y146.468 E81.50168
G1 X120.986 Y146.855 E81.53535
G1 X120.391 Y147.174 E81.56904
G1 X119.763 Y147.421 E81.6027
G1 X119.109 Y147.591 E81.63641
G1 X118.441 Y147.683 E81.67006
G1 X118 Y147.7 E81.69207
G1 X102 Y147.7 E82.49032
G1 X101.326 Y147.66 E82.524
G1 X100.662 Y147.541 E82.55766
G1 X100.016 Y147.344 E82.59135
G1 X99.399 Y147.072 E82.62499
G1 X98.817 Y146.729 E82.6587
G1 X98.281 Y146.319 E82.69236
G1 X97.796 Y145.849 E82.72606
G1 X97.675 Y145.7 E82.73563
G1 X63 Y145.7 E84.46558
G1 X62.326 Y145.66 E84.49926
G1 X61.662 Y145.541 E84.53292
G1 X61.016 Y145.344 E84.56661
G1 X60.399 Y145.072 E84.60025
G1 X59.817 Y144.729 E84.63396
G1 X59.281 Y144.319 E84.66762
G1 X58.796 Y143.849 E84.70132
G1 X58.371 Y143.325 E84.73498
G1 X58.01 Y142.755 E84.76864
G1 X57.719 Y142.146 E84.80231
G1 X57.503 Y141.506 E84.83601
G1 X57.363 Y140.846 E84.86967
G1 X57.3 Y140 E84.91199
G1 X57.3 Y80 E87.90541
G1 X57.34 Y79.326 E87.93909
G1 X57.459 Y78.662 E87.97275
G1 X57.656 Y78.016 E88.00644
G1 X57.928 Y77.399 E88.04008
G1 X58.271 Y76.817 E88.07379
G1 X58.681 Y76.281 E88.10745
G1 X59.151 Y75.796 E88.14115
G1 X59.675 Y75.371 E88.17481
G0 F6000 X59.738 Y76.079
G1 F1200 X60.254 Y75.703 E88.20666
G1 X60.812 Y75.393 E88.23851
G1 X61.405 Y75.156 E88.27037
G1 X62.022 Y74.995 E88.30218
G1 X62.655 Y74.912 E88.33403
G1 X63 Y74.9 E88.35125
G1 X97.962 Y74.9 E90.09551
G1 X98.092 Y74.723 E90.10647
G1 X98.532 Y74.26 E90.13834
G1 X99.027 Y73.856 E90.17021
G1 X99.568 Y73.517 E90.20207
G1 X100.147 Y73.249 E90.2339
G1 X100.755 Y73.054 E90.26575
G1 X101.383 Y72.937 E90.29762
G1 X102 Y72.9 E90.32846
G1 X118 Y72.9 E91.1267
G1 X118.637 Y72.94 E91.15855
G1 X119.264 Y73.059 E91.19038
G1 X119.872 Y73.256 E91.22227
G1 X120.45 Y73.527 E91.25412
G1 X120.989 Y73.868 E91.28594
G1 X121.482 Y74.274 E91.3178
G1 X121.921 Y74.738 E91.34967
G1 X122.039 Y74.9 E91.35967
G1 X157 Y74.9 E93.10388
G1 X157.637 Y74.94 E93.13572
G1 X158.264 Y75.059 E93.16756
G1 X158.872 Y75.256 E93.19945
G1 X159.45 Y75.527 E93.2313
G1 X159.989 Y75.868 E93.26312
